icons/misc/pictures-monochrome.svg

<?xml version="1.0" encoding="UTF-8"?><svg id="Ebene_2" xmlns="http://www.w3.org/2000/svg" viewBox="0 0 14 14"><defs><style>.cls-1{fill:#5281a9;}</style></defs><g id="Ebene_1-2"><path class="cls-1" d="M12.086,0H1.914C.857,0,0,.857,0,1.914V12.086c0,1.057,.857,1.914,1.914,1.914H12.086c1.057,0,1.914-.857,1.914-1.914V1.914c0-1.057-.857-1.914-1.914-1.914Zm-2.071,2.253c.778,0,1.409,.631,1.409,1.409s-.631,1.409-1.409,1.409-1.409-.631-1.409-1.409c.001-.779,.631-1.409,1.409-1.409ZM1.774,11.557L4.859,3.792l2.345,5.769,1.789-2.406,3.332,4.402s-10.551,0-10.551,0Z"/></g></svg>

<svg xmlns="http://www.w3.org/2000/svg" viewBox="0 0 14 14"><path d="M12.086 0H1.914A1.914 1.914 0 0 0 0 1.914v10.172C0 13.143.857 14 1.914 14h10.172A1.914 1.914 0 0 0 14 12.086V1.914A1.914 1.914 0 0 0 12.086 0Zm-2.071 2.253a1.41 1.41 0 1 1 0 2.818 1.41 1.41 0 0 1 0-2.818Zm-8.241 9.304 3.085-7.765 2.345 5.769 1.789-2.406 3.332 4.402H1.774Z" style="fill:#5281a9"/></svg>
